X:1
T:Auburndale, 87.887
T:Auburndale, 87.887
T:Charles Armand Miller, 1893
T:Public Domain Courtesy of the Cyber Hymnal™
C:Charles Armand Miller, 1893
Z:Public Domain
Z:Courtesy of the Cyber Hymnal™
%%score ( 1 2 ) ( 3 4 )
L:1/8
Q:1/4=87
M:3/4
K:Bb
V:1 treble 
V:2 treble 
V:3 bass 
V:4 bass 
V:1
 [DF][DB] | [EB] [EA]3 [EF][Ec] | [Ec] [DB]3 [DF][D^F] | [EG]3 [EG] [EG][EG] | [EA]4 [DF][DF] | %5
 [EF]2 [EF]2 [DF][DF] | E2 E2 [EB][EB] | [DB]2 [DB]2 [^CB][CB] | [DF]2 [EF]2 [DF][DF] | %9
 [EG][EG]"^riten." [DF]2 [EF]2 | [DF]4 |] %11
V:2
 x2 | x6 | x6 | x6 | x6 | x6 | E2 E2 x2 | x6 | x6 | x6 | x4 |] %11
V:3
 [B,,B,][B,,F,] | [C,F,] [C,F,]3 [F,A,][F,A,] | [B,,B,] [B,,B,]3 [B,,B,][B,,B,] | %3
 [E,B,]3 [E,B,] [C,C][C,C] | [F,C]4 B,B, | [A,C]2 [A,C]2 [_A,B,][A,B,] | %6
 [G,B,]2 [G,B,]2 [_G,B,][G,B,] | [F,B,]2 [F,B,]2 [=E,B,][E,G,] | [F,B,]2 [F,A,]2 [B,,B,][B,,B,] | %9
 [E,B,][E,B,] [F,B,]2 [F,A,]2 | [B,,B,]4 |] %11
V:4
 x2 | x6 | x6 | x6 | x4 B,B, | x6 | x6 | x6 | x6 | x6 | x4 |] %11

